X:96
T: Der Bauernknecht
N: A0453
O: Europa, Mitteleuropa, Deutschland
N: Joh. Hecks Lieder - Hs. 1679 S. 108.
R: Romanze, Ballade, Lied
M: 3/2
L: 1/4
K: G
G2G2G2 | _B4B2 | c4c2 | d6
d2_e2=f2 | _e4d2 | d4c2 | _B6
d2d2d2 | c4c2 | _B4B2 | A6
G2G2G2 | F4D2 | G3A_Bc | A6
G3AG2 | F4F2 | G2A2_B2 | c4_B2
B2B2c2 | d4_B2 | c2c2_B2 | A6 | G6

